source/img/vacancies/vacancies-phone-icon.svg

<svg width="18" height="19" viewBox="0 0 18 19" fill="none" xmlns="http://www.w3.org/2000/svg">
<path fill-rule="evenodd" clip-rule="evenodd" d="M1.96385 2.32919C1.45688 2.88551 1 3.8167 1 5.38198C1 8.91059 3.66459 11.6324 5.20711 13.1749C6.74962 14.7174 9.47139 17.382 13 17.382C14.5653 17.382 15.4965 16.9251 16.0528 16.4181C16.5808 15.937 16.8464 15.3417 16.949 14.8438L14.0938 12.7024L12.2168 14.5794C11.6124 15.1838 10.6476 15.3618 9.85567 14.8837C9.06269 14.405 7.67928 13.4755 6.29289 12.0891C4.9065 10.7027 3.97701 9.31929 3.49826 8.52632C3.02016 7.73443 3.19819 6.76958 3.80255 6.16522L5.67962 4.28815L3.53822 1.43295C3.04024 1.53554 2.44497 1.80123 1.96385 2.32919ZM3.50291 0.423143C2.09827 0.64617 0 1.8338 0 5.38198C0 9.38198 3 12.382 4.5 13.882C6 15.382 9 18.382 13 18.382C16.5482 18.382 17.7358 16.2837 17.9588 14.8791C18.0082 14.5682 17.8518 14.2708 17.6 14.082L14.6938 11.9024C14.2957 11.6038 13.7386 11.6434 13.3867 11.9953L11.5097 13.8723C11.2053 14.1767 10.741 14.2501 10.3725 14.0277C9.62531 13.5765 8.31266 12.6946 7 11.382C5.68734 10.0693 4.80545 8.75667 4.35433 8.00947C4.13186 7.64098 4.20529 7.17669 4.50965 6.87233L6.38673 4.99525C6.73862 4.64336 6.77821 4.08627 6.47962 3.68815L4.3 0.781985C4.11115 0.530179 3.81378 0.373785 3.50291 0.423143Z" fill="#E0E0E0"/>
</svg>

<svg width="18" height="19" fill="none" xmlns="http://www.w3.org/2000/svg"><path fill-rule="evenodd" clip-rule="evenodd" d="M1.964 2.33C1.457 2.885 1 3.816 1 5.381c0 3.529 2.665 6.25 4.207 7.793C6.75 14.717 9.471 17.382 13 17.382c1.565 0 2.496-.457 3.053-.964a2.947 2.947 0 00.896-1.574l-2.855-2.142-1.877 1.877c-.605.605-1.57.783-2.361.305a19.142 19.142 0 01-3.563-2.795 19.146 19.146 0 01-2.795-3.563c-.478-.792-.3-1.756.305-2.36L5.68 4.287 3.538 1.433a2.947 2.947 0 00-1.574.896zM3.503.422C2.098.646 0 1.833 0 5.382c0 4 3 7 4.5 8.5s4.5 4.5 8.5 4.5c3.548 0 4.736-2.098 4.959-3.503.05-.31-.107-.608-.359-.797l-2.906-2.18a1 1 0 00-1.307.093l-1.877 1.877a.927.927 0 01-1.137.156A18.153 18.153 0 017 11.382a18.147 18.147 0 01-2.646-3.373.927.927 0 01.156-1.137l1.877-1.877a1 1 0 00.093-1.307L4.3.782C4.111.53 3.814.374 3.503.423z" fill="#E0E0E0"/></svg>
